client/public/assets/icons/custom/custom92.svg

<?xml version="1.0"?><svg xmlns="http://www.w3.org/2000/svg" width="100" height="100" viewBox="0 0 100 100"><g fill="#fff"><path d="m73.7 56.4l-22.8-10.4c-0.6-0.3-1.2-0.3-1.8 0l-22.8 10.4c-1.3 0.6-1.7 2.1-0.9 3.3 2.4 3.4 3.9 7.8 4.5 9.8 0.2 0.8 0.9 1.3 1.6 1.5 7.9 1.9 14.4 6.4 17.1 8.5 0.8 0.6 1.9 0.6 2.7 0 2.7-2.1 9.3-6.6 17.1-8.5 0.8-0.2 1.4-0.7 1.6-1.5 0.6-2.1 2.1-6.5 4.5-9.8 0.9-1.1 0.5-2.7-0.8-3.3z m-29.7 5.6c-1.7 0-3-1.8-3-4s1.3-4 3-4 3 1.8 3 4-1.3 4-3 4z m12 0c-1.7 0-3-1.8-3-4s1.3-4 3-4 3 1.8 3 4-1.3 4-3 4z m-21.6-15.9l12.2-5.6c1.5-0.7 3.1-0.9 4.8-0.6 0.7 0.1 1.4 0.4 2.1 0.7l12.1 5.6c0.7 0.3 1.4-0.2 1.4-0.9v-4.5c0-0.5-0.2-1-0.6-1.4-0.8-0.9-2.4-2.4-5.4-2.4v-5.9c0-0.7-0.4-1.4-1-1.7-1.1-0.6-3-1.5-6-2v-5.4c0-1.1-0.9-2-2-2h-4c-1.1 0-2 0.9-2 2v5.4c-3 0.5-4.9 1.4-6 2-0.6 0.3-1 1-1 1.7v5.9c-3 0-4.6 1.5-5.4 2.3-0.4 0.4-0.6 0.9-0.6 1.4v4.5c0 0.7 0.7 1.2 1.4 0.9z"></path></g></svg>

<?xml version="1.0" encoding="utf-8"?>
<!-- Generator: Adobe Illustrator 16.0.0, SVG Export Plug-In . SVG Version: 6.00 Build 0)  -->
<!DOCTYPE svg PUBLIC "-//W3C//DTD SVG 1.1//EN" "http://www.w3.org/Graphics/SVG/1.1/DTD/svg11.dtd">
<svg version="1.1" id="Layer_1" xmlns="http://www.w3.org/2000/svg" xmlns:xlink="http://www.w3.org/1999/xlink" x="0px" y="0px"
	 width="100px" height="100px" viewBox="0 0 100 100" enable-background="new 0 0 100 100" xml:space="preserve">
<g>
	<path fill="#FFFFFF" d="M73.7,56.4L50.9,46c-0.601-0.3-1.2-0.3-1.8,0L26.3,56.4c-1.3,0.6-1.7,2.1-0.9,3.3
		c2.4,3.399,3.9,7.8,4.5,9.8c0.2,0.8,0.9,1.3,1.6,1.5c7.9,1.9,14.4,6.4,17.1,8.5c0.8,0.6,1.9,0.6,2.7,0C54,77.4,60.6,72.9,68.4,71
		c0.8-0.2,1.399-0.7,1.6-1.5c0.6-2.1,2.1-6.5,4.5-9.8C75.4,58.6,75,57,73.7,56.4z M44,62c-1.7,0-3-1.8-3-4s1.3-4,3-4s3,1.8,3,4
		S45.7,62,44,62z M56,62c-1.7,0-3-1.8-3-4s1.3-4,3-4s3,1.8,3,4S57.7,62,56,62z"/>
	<path fill="#FFFFFF" d="M34.4,46.1l12.2-5.6c1.5-0.7,3.1-0.9,4.8-0.6c0.699,0.1,1.399,0.4,2.1,0.7l12.1,5.6
		c0.7,0.3,1.4-0.2,1.4-0.9v-4.5c0-0.5-0.2-1-0.6-1.4C65.6,38.5,64,37,61,37v-5.9c0-0.7-0.4-1.4-1-1.7c-1.1-0.6-3-1.5-6-2V22
		c0-1.1-0.9-2-2-2h-4c-1.1,0-2,0.9-2,2v5.4c-3,0.5-4.9,1.4-6,2c-0.6,0.3-1,1-1,1.7V37c-3,0-4.6,1.5-5.4,2.3
		c-0.4,0.4-0.6,0.9-0.6,1.4v4.5C33,45.9,33.7,46.4,34.4,46.1z"/>
</g>
</svg>
